app/assets/images/nih-logo.svg

<svg width="44px" height="28px" viewBox="0 0 44 28" version="1.1" xmlns="http://www.w3.org/2000/svg" xmlns:xlink="http://www.w3.org/1999/xlink">
  <g id="Page-1" stroke="none" stroke-width="1" fill="none" fill-rule="evenodd">
      <g id="Group">
          <path d="M37.494,13.6693 L30.019,0.0003 L2.488,0.0003 C1.114,0.0003 0,1.1283 0,2.5193 L0,24.8433 C0,26.2333 1.114,27.3613 2.488,27.3613 L29.993,27.3613 L37.494,13.6693 Z M13.99,19.8263 L11.756,19.8263 L6.255,10.8323 L6.204,10.8323 L6.204,19.8263 L4.19,19.8263 L4.19,7.5953 L6.424,7.5953 L11.942,16.6063 L11.976,16.6063 L11.976,7.5953 L13.99,7.5953 L13.99,19.8263 Z M16.074,19.8263 L18.19,19.8263 L18.19,7.5943 L16.074,7.5943 L16.074,19.8263 Z M30.039,7.5953 L30.039,19.8263 L27.923,19.8263 L27.923,14.3103 L22.422,14.3103 L22.422,19.8263 L20.306,19.8263 L20.306,7.5953 L22.422,7.5953 L22.422,12.4603 L27.923,12.4603 L27.923,7.5953 L30.039,7.5953 Z" id="Fill-2344" fill="#767575"></path>
          <path d="M31.8689,27.362 L39.3609,13.669 L31.8939,0 L33.7639,0 C34.7869,0 36.0299,0.743 36.5249,1.648 L43.0909,13.669 L36.5019,25.715 C36.0059,26.621 34.7629,27.362 33.7399,27.362 L31.8689,27.362 Z" id="Fill-2346" fill="#004A80"></path>
      </g>
  </g>
</svg>

<svg height="28" viewBox="0 0 44 28" width="44" xmlns="http://www.w3.org/2000/svg"><g fill="none" fill-rule="evenodd"><path d="m37.494 13.6693-7.475-13.669h-27.531c-1.374 0-2.488 1.128-2.488 2.519v22.324c0 1.39 1.114 2.518 2.488 2.518h27.505zm-23.504 6.157h-2.234l-5.501-8.994h-.051v8.994h-2.014v-12.231h2.234l5.518 9.011h.034v-9.011h2.014zm2.084 0h2.116v-12.232h-2.116zm13.965-12.231v12.231h-2.116v-5.516h-5.501v5.516h-2.116v-12.231h2.116v4.865h5.501v-4.865z" fill="#767575"/><path d="m31.8689 27.362 7.492-13.693-7.467-13.669h1.87c1.023 0 2.266.743 2.761 1.648l6.566 12.021-6.589 12.046c-.496.906-1.739 1.647-2.762 1.647z" fill="#004a80"/></g></svg>
